src/pos-icons/repeat.svg

<svg height="24" viewBox="0 0 24 24" width="24" xmlns="http://www.w3.org/2000/svg"><path d="m17 17h-10v-3l-4 4 4 4v-3h12v-6h-2m-10-6h10v3l4-4-4-4v3h-12v6h2z"/></svg>

<?xml version="1.0" encoding="UTF-8"?><!DOCTYPE svg PUBLIC "-//W3C//DTD SVG 1.1//EN" "http://www.w3.org/Graphics/SVG/1.1/DTD/svg11.dtd"><svg xmlns="http://www.w3.org/2000/svg" xmlns:xlink="http://www.w3.org/1999/xlink" version="1.1" id="mdi-repeat" width="24" height="24" viewBox="0 0 24 24"><path d="M17,17H7V14L3,18L7,22V19H19V13H17M7,7H17V10L21,6L17,2V5H5V11H7V7Z" /></svg>
